!!!!SEGMENT: pl-cz--iii-451--004_maader-ludwik--missa-g-et-incarnatus.krn
!!!cenid: 18xx:965
!!!COM: Maader, Ludwik
!!!COM-rismID: pe30020328
!!!CDT: <1794->1798
!!!CNT:
!!!OPR: Missa G
!!!OTL: Sanctus
!!!OMV: 005
!!!PDT: 1815
!!!AGN: Sacred; Mass
!!!SMS-siglum: PL-CZ
!!!SMS-shelfmark: III-451
!!!SMS-shelfwork: 001-005 M
!!!SMS-variant:
!!!SMS-altvar:
!!!NIFC-rismSourceID: 300000763
!!!NIFC-islandoraID: pl-cz:38436
!!!URL-pdf-islandora: https://repozytorium.nifc.pl/islandora/object/pl-cz%3A38436/datastream/PDF/view
!!!URL-scan:
!!!ONB-nifc: UWAGA: części Mszy: Kyrie, Gloria, Credo, Et incarnatus, Sanctus, Pleni sunt, Benedicuts, Agnus Dei
!!!AIN: 1 bass 6 empty 2 violn 2 vox
!!!key: G
**kern	**kern	**text	**dynam	**kern	**dynam	**kern	**dynam	**kern	**text	**kern	**text	**kern	**text	**kern	**kern	**kern	**dynam	**kern	**dynam
*part11	*part10	*part10	*part10	*part9	*part9	*part8	*part8	*part7	*part7	*part6	*part6	*part5	*part5	*part4	*part3	*part2	*part2	*part1	*part1
*staff11	*staff10	*staff10	*	*staff9	*	*staff8	*	*staff7	*staff7	*staff6	*staff6	*staff5	*staff5	*staff4	*staff3	*staff2	*	*staff1	*
*Iempty	*Iempty	*	*	*Ivioln	*	*Ivioln	*	*Ibass	*	*Ivox	*	*Ivox	*	*Iempty	*Iempty	*Iempty	*	*Iempty	*
*	*I"Organo Concertando	*	*	*I"Violino Secondo	*	*I"Violino Primo	*	*I"Basso	*	*I"Canto Secondo	*	*I"Canto Primo	*	*I"Cornu Secondo	*I"Cornu Primo in g	*I"flauto Secundo	*	*I"flauto Primo	*
*	*I'Org. Conc.	*	*	*I'Vn II	*	*I'Vn I	*	*I'B.	*	*I'C. 2	*	*I'C. 1	*	*I'C. 2	*I'C. 1 in G	*I'Fl. 2	*	*I'Fl. 1	*
*ICklav	*ICklav	*	*	*ICstr	*	*ICstr	*	*ICvox	*	*ICvox	*	*ICvox	*	*ICbras	*ICbras	*ICww	*	*ICww	*
*IG	*	*	*	*	*	*	*	*IGcoro	*	*IGcoro	*	*IGcoro	*	*	*	*	*	*	*
*clefF4	*clefG2	*	*	*clefG2	*	*clefG2	*	*clefF4	*	*clefC1	*	*clefC1	*	*clefG2	*clefG2	*clefG2	*	*clefG2	*
*ITrd-1c-2	*ITrd-1c-2	*	*	*	*	*	*	*	*	*	*	*	*	*ITrd3c5	*ITrd3c5	*	*	*	*
*k[]	*k[]	*	*	*k[]	*	*k[]	*	*k[]	*	*k[]	*	*k[]	*	*k[]	*k[]	*k[]	*	*k[]	*
*G:	*G:	*	*	*G:	*	*G:	*	*G:	*	*G:	*	*G:	*	*G:	*G:	*G:	*	*G:	*
*M3/4	*M3/4	*	*	*M3/4	*	*M3/4	*	*M3/4	*	*M3/4	*	*M3/4	*	*M3/4	*M3/4	*M3/4	*	*M3/4	*
=1	=1	=1	=1	=1	=1	=1	=1	=1	=1	=1	=1	=1	=1	=1	=1	=1	=1	=1	=1
!!LO:TX:t=P:problem:caudy wszystkich nut po prawej: global
!	!	!	!LO:DY:a:t=Piano	!	!LO:DY:b:t=piano.	!	!LO:DY:b	!	!	!	!	!	!	!	!	!	!LO:DY:a:t=Pia	!LO:TX:a:B:t=Adagio Solo:color=red	!LO:DY:a:t=Piano
!	!LO:TX:a:B:t=Adagio:color=red	!	!	!LO:TX:a:B:t=Adagio Solo:color=red	!	!LO:TX:a:t=Piano:color=red	!	!LO:TX:a:B:t=Adagio\nSolo:color=red	!	!LO:TX:a:B:t=Adagio:color=red	!	!LO:TX:a:B:t=Adagio Solo:color=red	!	!	!	!LO:TX:a:B:t=Adagio:color=red	!	!	!
!	!	!	!	!	!	!LO:TX:a:B:t=Adagio.	!	!	!	!	!	!	!	!	!	!	!	!	!
4C/ 4c	(8.ee\L 8.gg	Et	p	8.e/L	p	(8.g/L	pp	4c\	Et	8.ee\L	Et	(8.gg\L	Et	2.ryy	2.ryy	8.ee\L	p	8.gg\L	p
.	16dd\Jk) 16ff	.	.	16d/Jk	.	(16f/Jk)	.	.	.	16dd\Jk	.	16ff\Jk)	.	.	.	16dd\Jk	.	16ff\Jk	.
!	!LO:TX:a:i:t=Solo	!	!	!	!	!	!	!	!	!	!	!	!	!	!	!	!	!	!
4C/ 4c	(8cc\L 8ee	in-	.	8c/L	.	(8e/L)	.	4c\	in-	(8cc\L	in-	(8ee\L	in-	.	.	(8cc\L	.	(8ee\L	.
.	8dd\J) 8ff	.	.	8d/	.	8f/	.	.	.	8dd\J)	.	8ff\J)	.	.	.	8dd\)	.	8ff\)	.
4C/ 4c	(8ee\L 8gg	-car-	.	8e/	.	8g/	.	4c\	-car-	(8ee\L	-car-	(8gg\L	-car-	.	.	(8ee\	.	(8gg\	.
.	8ff\J) 8aa	.	.	8f/J	.	8a/J)	.	.	.	8ff\J)	.	8aa\J)	.	.	.	8ff\J)	.	8aa\J)	.
=2	=2	=2	=2	=2	=2	=2	=2	=2	=2	=2	=2	=2	=2	=2	=2	=2	=2	=2	=2
!	!	!	!	!	!	!	!	!	!	!	!	!	!	!LO:TX:a:i:t=Tacet	!LO:TX:a:i:t=Tacet	!	!	!	!
4GG/ 4G	16ee\LL 16gg	-na-	.	16e/LL	.	(16g/LL	.	4G\	-na-	16ee\LL	-na-	(16gg\LL	-na-	2.ryy	2.ryy	16.ee\LL	.	16gg\LL	.
.	16dd\JJ 16ff	.	.	16d/	.	16f/	.	.	.	(16dd\	.	16ff\)	.	.	.	.	.	(16ff\	.
.	.	.	.	.	.	.	.	.	.	.	.	.	.	.	.	32dd\K	.	.	.
!	!	!	!	!	!	!	!	!	!	!	!	!	!	!	!	!LO:TX:t=P:problem=# above	!	!	!
.	16cc#\LL 16ee	-tus	.	16c#X/	.	16e/)	.	.	.	16cc\	.	(16ee\	.	.	.	16cc#X\	.	16ee\	.
.	16dd\JJ 16ff	.	.	16c#/JJ	.	16f/JJ	.	.	.	16dd\JJ)	.	16ff\JJ)	.	.	.	16dd\JJ	.	16ff\JJ)	.
4GG/ 4G	4.b\ 4.dd	est	.	4.B/	.	4.d/	.	4G\	-tus	4.b\	-tus	4.dd\	-tus	.	.	4.b\	.	4.dd\	.
4GG/ 4G	.	.	.	.	.	.	.	8G\	est	.	.	.	.	.	.	.	.	.	.
.	8dd\ 8ff	de	.	8d/	.	8f/	.	8G\	de	8dd\	est	8ff\	est	.	.	8dd\	.	8ff\	.
=3	=3	=3	=3	=3	=3	=3	=3	=3	=3	=3	=3	=3	=3	=3	=3	=3	=3	=3	=3
!	!	!	!	!	!	!	!	!	!	!	!	!	!	!	!	!LO:TX:t=P:problem=mixed beam	!	!	!
4C/	(8cc\L 8ee	spi-	.	8cn/L	.	(8e/L	.	4C/	spi-	(8cc\L	de	(8ee\L	de-	2.ryy	2.ryy	8cc\L	.	(8ee\L	.
.	8ee\J) 8gg	.	.	8d/ 8e	.	8g/)	.	.	.	8ee\J)	.	8gg\J)	-spi-	.	.	8ee\	.	8gg\)	.
4F/	(8dd\L 8ff	-ri-	.	8d/	.	(8f/	.	4F\	-ri-	(8dd\L	spi-	(8ff\L	-ri-	.	.	8dd\	.	(8ff\	.
.	8ff\J) 8aa	.	.	8f/	.	8a/)	.	.	.	8ff\J)	.	8aa\J)	.	.	.	8ff\	.	8aa\)	.
4G\	8d/L 8b	-tu-	.	8d/	.	(8Bn/	.	4G\	-tu	8d/L	-ri-	(8b\L	-tu-	.	.	8f/	.	(8b\	.
.	8f/J 8dd	-i	.	8f/J	.	8d/J)	.	.	.	8f/J	-tu	8dd\J)	-i	.	.	8f/J	.	8dd\J)	.
=4	=4	=4	=4	=4	=4	=4	=4	=4	=4	=4	=4	=4	=4	=4	=4	=4	=4	=4	=4
!LO:TX:t=P:problem=mixed beam	!	!	!	!	!	!	!	!	!	!	!	!	!	!	!	!	!	!	!
8C/L	8f/L 8dd	San-	.	8f/L	.	8d/L	.	4c\	ſan-	8f/L	ſan-	(8dd\L	ſan-	2.ryy	2.ryy	(8f/L	.	(8dd\L	.
8c\	8e/J 8cc	.	.	8e/J	.	8c/J	.	.	.	8e/J	.	8cc\J)	.	.	.	8e/J)	.	8cc\J	.
8G\	4e/ 4cc	-cto	.	4e/	.	4c/	.	4C/	-cto	4e/	-cto	4cc\	-cto	.	.	4e|/	.	4cc|\)	.
8c\	.	.	.	.	.	.	.	.	.	.	.	.	.	.	.	.	.	.	.
8E\	4r	.	.	4r	.	4r	.	4r	.	4r	.	4r	.	.	.	4r	.	4r	.
8G\J	.	.	.	.	.	.	.	.	.	.	.	.	.	.	.	.	.	.	.
!LO:LB:g=original	!LO:LB:g=original	!	!	!	!	!	!	!	!	!	!	!LO:LB:g=original	!	!	!	!	!	!	!
=5	=5	=5	=5	=5	=5	=5	=5	=5	=5	=5	=5	=5	=5	=5	=5	=5	=5	=5	=5
4C/ 4c	8.ee\L 8.gg	Ex	.	8e/L	.	8.g/L	.	8c\	ex	8.ee\L	ex	8.gg\	ex	2.ryy	2.ryy	8.ee\L	.	(8.gg\L	.
.	.	.	.	8d/J	.	.	.	8c\	Ma-	.	.	.	.	.	.	.	.	.	.
.	16dd\Jk 16ff	.	.	.	.	16f/Jk	.	.	.	16dd\Jk	.	16ff\	Ma-	.	.	16dd\Jk	.	16ff\Jk)	.
4C/ 4c	(8cc\L 8ee	Ma-	.	8c/L	.	8e/L	.	4c\	-ri-	(8cc\L	Ma-	(8ee\L	-ri-	.	.	8cc\L	.	(8ee\L	.
.	8dd\J) 8ff	.	.	8d/	.	8f/	.	.	.	8dd\J)	-ri-	8ff\J)	.	.	.	8dd\	.	8ff\)	.
4C/ 4c	(8ee\L 8gg	-ri-	.	8e/	.	8g/	.	4c\	-a	(8ee\L	-a	(8gg\L	-a	.	.	8ee\	.	(8gg\	.
.	8ff\J) 8aa	-a	.	8f/J	.	8a/J	.	.	.	8ff\J)	.	8aa\J)	.	.	.	8ff\J	.	8aa\J)	.
!	!	!	!	!	!	!	!	!LO:LB:g=original	!	!LO:LB:g=original	!	!	!	!	!	!LO:LB:g=original	!	!	!
=6	=6	=6	=6	=6	=6	=6	=6	=6	=6	=6	=6	=6	=6	=6	=6	=6	=6	=6	=6
4GG/ 4G	16ee\LL 16gg	Vir-	.	16e/LL	.	(16g/LL	.	4G\	Vir-	(16ee\LL	Vir-	(16gg\LL	Vir-	2.ryy	2.ryy	16.e\LL	.	16gg\LL	.
.	16dd\JJ 16ff	.	.	16d/	.	16f/	.	.	.	16dd\)	.	16ff\)	.	.	.	.	.	(16ff\	.
.	.	.	.	.	.	.	.	.	.	.	.	.	.	.	.	32dd\K	.	.	.
.	16cc#\LL 16ee	-gi-	.	16c#X/	.	16e/)	.	.	.	(16cc\	-gi-	(16ee\	-gi-	.	.	16cc#X\	.	16ee\	.
.	16dd\JJ 16ff	.	.	16d/JJ	.	16f/JJ	.	.	.	16dd\JJ)	.	16ff\JJ)	.	.	.	16dd\JJ	.	16ff\JJ)	.
4GG/ 4G	4.b\ 4.dd	-ne	.	4.B/	.	4.d/	.	4G\	-gi-	4.b\	-ne	4.dd\	-ne	.	.	4.b\	.	4.dd\	.
4GG/ 4G	.	.	.	.	.	.	.	8G\	-ne	.	.	.	.	.	.	.	.	.	.
.	8dd\ 8ff	et	.	8d/	.	8f/	.	8G\	et	8dd\	et	8ff\	et	.	.	8dd\	.	8ff\	.
!	!	!	!	!LO:LB:g=original	!	!	!	!	!	!	!	!	!	!	!	!	!	!LO:LB:g=original	!
=7	=7	=7	=7	=7	=7	=7	=7	=7	=7	=7	=7	=7	=7	=7	=7	=7	=7	=7	=7
4c\	8cc/ 8ee	ho-	.	8cn/L	.	8e/L	.	8c\	Ho-	(8cc\L	ho-	(8ee\L	Ho-	2.ryy	2.ryy	(8cc\L	.	(8ee\L	.
.	8b/ 8dd	-mo	.	8B/	.	8d/	.	8c\	-mo	8b\J)	.	8dd\J)	.	.	.	8dd\)	.	8dd\)	.
4d\	8a/L 8cc	fa-	.	8A/	.	8c/	.	4d\	fac-	(8a\L	-mo	(8cc\L	.	.	.	(8cc\	.	(8cc\	.
.	8g/J 8b	.	.	8G/J	.	8B/	.	.	.	8g\J)	.	8b\J)	-mo	.	.	8b\)	.	8b\)	.
!	!	!	!	!	!	!LO:TX:t=P::problem=główka nuty nieczytelna&colon; plama	!	!	!	!	!	!	!	!	!	!	!	!	!
4D/	8a/L 8cc	.	.	8A/L	.	8B/	.	4D/	-tus	(8a\L	fa-	(8cc\L	fa-	.	.	(8cc\	.	(8cc\	.
.	8c/J 8a	-ctus	.	8c/J	.	8A/J	.	.	.	8c\J)	-ctus	8a\J)	-ctus	.	.	8b\J)	.	8aa\J)	.
!	!	!	!	!	!	!LO:LB:g=original	!	!	!	!	!	!	!	!	!	!	!	!	!
=8	=8	=8	=8	=8	=8	=8	=8	=8	=8	=8	=8	=8	=8	=8	=8	=8	=8	=8	=8
!LO:TX:t=P:problem=mixed beam	!	!	!	!LO:TX:t=P:problem=1-2 ćwierćnuty	!	!	!	!	!	!	!	!	!	!	!	!	!	!	!
.	.	.	.	.	.	.	.	.	.	.	.	8qqa/	.	.	.	.	.	.	.
!	!	!	!	!	!	!LO:N:vis=4	!	!	!	!	!	!	!	!	!	!	!	!	!
8GG/L	8c/ 8a	est	.	8c/L	.	8A/L	.	4G\	est	4B/	est	4g\	est	2.ryy	2.ryy	8a/L	.	8aa\L	.
!	!	!	!	!	!	!LO:N:vis=4	!	!	!	!	!	!	!	!	!	!	!	!	!
8G\	4B/ 4g	.	.	8B/J	.	8G/J	.	.	.	.	.	.	.	.	.	8g/J	.	8gg\J	.
8D\	.	.	.	4B/	.	4G/	.	4r	.	4r	.	4r	.	.	.	4g/	.	4gg\	.
8G\	8r	.	.	.	.	.	.	.	.	.	.	.	.	.	.	.	.	.	.
8BB\	4r	.	.	4r	.	4r	.	4r	.	4r	.	4r	.	.	.	4r	.	4r	.
8D\J	.	.	.	.	.	.	.	.	.	.	.	.	.	.	.	.	.	.	.
=9	=9	=9	=9	=9	=9	=9	=9	=9	=9	=9	=9	=9	=9	=9	=9	=9	=9	=9	=9
!	!	!	!LO:DY:a:t=Piano	!	!	!LO:TX:t=P:problem=po nucie jeszcze pauza ósemkowa	!	!	!	!	!	!	!	!	!	!	!	!	!LO:DY:a:t=for
!	!	!	!	!LO:TX:a:t=1.	!	!	!	!LO:TX:a:t=1	!	!	!	!	!	!	!	!	!	!	!
4GG/ 4G	8.b/ 8.dd	Cru-	p	2.r	.	4g/	.	2.r	.	8.b\	Cru-	8.dd\	Cru-	2.ryy	2.ryy	8.bb\L	.	8.ddd\L	f
!	!	!	!	!	!	!	!	!	!	!	!	!	!	!	!	!LO:TX:t=P:problem=główka nuty nieczytelna, nad nutą litera "c"	!	!	!
!	!	!	!	!	!	!	!	!	!	!	!	!	!	!	!	!LO:TX:a:t=C	!LO:DY:b:t=forte	!	!
.	16cc\ 16ee	-ci-	.	.	.	.	.	.	.	16cc\	-ci-	16ee\	-ti-	.	.	16ccc\K	f	16eee\K	.
4GG/ 4G	(8dd\L 8ff	-fi-	.	.	.	4r	.	.	.	(8dd\L	-fi-	(8ff\L	-fi-	.	.	8ddd\	.	8fff\	.
.	8cc\J) 8ee	.	.	.	.	.	.	.	.	8cc\J)	.	8ee\J)	.	.	.	8bb\J	.	8eee\J	.
4GG/ 4G	4b\ 4dd	-xus	.	.	.	4r	.	.	.	4b\	-xus	4dd\	-xus	.	.	4bb\	.	4ddd\	.
=10	=10	=10	=10	=10	=10	=10	=10	=10	=10	=10	=10	=10	=10	=10	=10	=10	=10	=10	=10
!	!	!	!	!	!	!LO:TX:b:i:t=fort.	!	!	!	!	!	!	!	!	!	!	!	!LO:TX:a:t=1	!
!	!	!	!LO:DY:a:t=forte	!	!	!	!LO:DY:a	!	!	!	!	!	!	!	!	!	!	!	!
!	!	!	!	!	!LO:DY:a:t=forte:color=red	!	!LO:DY:a:t=forte:color=red	!	!	!LO:TX:a:t=1	!	!LO:TX:a:t=1	!	!	!	!LO:TX:a:t=1	!	!	!
16GG/LL	16g/LL	.	f	16G/LL	f	(16g\LL	f	(16GG|>/LL	cru-	2.r	.	2.r	.	2.ryy	2.ryy	2.r	.	2.r	.
16AA/	16a/	.	.	16A/	.	16a\	.	16AA|>/JJ)	.	.	.	.	.	.	.	.	.	.	.
16BB/	16b/	.	.	16A/	.	16b\	.	(16BB|>/LL	-ti-	.	.	.	.	.	.	.	.	.	.
!	!	!	!	!LO:TX:b:i:t=for.	!	!	!	!	!	!	!	!	!	!	!	!	!	!	!
16C/JJ	16cc/JJ	.	.	16c/JJ	.	16cc\JJ)	.	16C|>/JJ)	.	.	.	.	.	.	.	.	.	.	.
16D/LL	16dd/LL	.	.	16d/LL	.	16dd\LL	.	(16D/LL	-fi-	.	.	.	.	.	.	.	.	.	.
16C/	16cc/	.	.	16c/	.	(16cc\	.	16C/JJ)	.	.	.	.	.	.	.	.	.	.	.
16BB/	16b/	.	.	16B/	.	16b\)	.	16BB/LL	.	.	.	.	.	.	.	.	.	.	.
16AA/JJ	16a/JJ	.	.	16A/JJ	.	16a\JJ	.	16AA/JJ	.	.	.	.	.	.	.	.	.	.	.
4GG/	4g/	.	.	4G/	.	4g/	.	4GG/	-xus	.	.	.	.	.	.	.	.	.	.
!LO:LB:g=original	!LO:LB:g=original	!	!	!	!	!	!	!	!	!	!	!	!	!	!	!	!	!	!
=11	=11	=11	=11	=11	=11	=11	=11	=11	=11	=11	=11	=11	=11	=11	=11	=11	=11	=11	=11
!	!	!	!LO:DY:a:t=Piano	!	!	!	!	!LO:TX:a:t=1	!	!	!	!	!	!	!	!	!	!	!LO:DY:a:t=for
!	!	!	!	!LO:TX:a:t=1.	!	!LO:TX:a:t=1.	!	!LO:TX:a:t=Vi&colon;	!	!	!	!	!	!	!	!	!	!	!
4C\ 4c	8.cc\ 8.ee	Cru-	p	2.r	.	2.r	.	2.r	.	8.cc\	Cru-	8.ee\	Cru-	2.ryy	2.ryy	8.ccc\L	.	8.eee\L	f
.	16dd\ 16ff	-ci-	.	.	.	.	.	.	.	16dd\	-ci-	16ff\	-ti-	.	.	16ddd\K	.	16fff\K	.
!	!	!	!	!	!	!	!	!	!	!	!	!	!	!	!	!	!LO:DY:b:t=forte	!	!
4C\ 4c	(8ee\L 8gg	-fi-	.	.	.	.	.	.	.	(8ee\L	-fi-	(8gg\L	-fi-	.	.	8eee\	f	8ggg\	.
.	8dd\J) 8ff	.	.	.	.	.	.	.	.	8dd\J)	.	8ff\J)	.	.	.	8ddd\J	.	8fff\J	.
4C\ 4c	4cc|\ 4ee	-xus	.	.	.	.	.	.	.	4cc\	-xus	4ee\	-xus	.	.	4ccc\	.	4eee\	.
!	!	!	!	!	!	!	!	!	!	!	!	!LO:LB:g=original	!	!	!	!	!	!	!
=12	=12	=12	=12	=12	=12	=12	=12	=12	=12	=12	=12	=12	=12	=12	=12	=12	=12	=12	=12
!	!	!	!	!	!	!LO:TX:b:i:t=for.	!	!LO:TX:t=P:problem=przed taktem 12 odsyłacz "Vi&colon;", , dwa systemy niżej z oznaczeniem "de&colon;" zapisane kolejne 7 taktów, pierwotnie pominiętych	!	!	!	!	!	!	!	!	!	!	!
!	!	!	!LO:DY:a:t=forte	!	!LO:DY:a	!	!LO:DY:a	!	!	!LO:TX:a:t=1	!	!	!	!	!	!	!	!	!
!	!	!	!	!	!LO:DY:a:t=forte:color=red	!	!LO:DY:a:t=forte:color=red	!LO:TX:a:t=de&colon;	!	!	!	!	!	!	!	!LO:TX:a:t=1	!	!LO:TX:a:t=1.	!
16C\LL	16cc\LL	.	f	16c/LL	f	16cc\LL	f	(16C\LL	Cru-	2.r	.	2.ryy	.	2.ryy	2.ryy	2.r	.	2.r	.
16D\	16dd\	.	.	16d/	.	16dd\	.	16D\JJ)	.	.	.	.	.	.	.	.	.	.	.
16E\	16ee\	.	.	16e/	.	16ee\	.	(16E\LL	-ti-	.	.	.	.	.	.	.	.	.	.
16F\JJ	16ff\JJ	.	.	16f/JJ	.	16ff\JJ	.	16F\JJ)	.	.	.	.	.	.	.	.	.	.	.
16G\LL	16gg\LL	.	.	16g/LL	.	16gg\LL	.	(16G\LL	-fi-	.	.	.	.	.	.	.	.	.	.
16F\	16ff\	.	.	16f/	.	16ff\	.	16F\JJ)	.	.	.	.	.	.	.	.	.	.	.
16E\	16ee\	.	.	16e/	.	16ee\	.	(16E\LL	.	.	.	.	.	.	.	.	.	.	.
16D\JJ	16dd\JJ	.	.	16d/JJ	.	16dd\JJ	.	16D\JJ)	.	.	.	.	.	.	.	.	.	.	.
4C/	4cc\	.	.	4c/	.	4cc\	.	4C/	-xus	.	.	.	.	.	.	.	.	.	.
!	!	!	!	!	!	!	!	!	!	!LO:LB:g=original	!	!	!	!	!	!	!	!	!
=13	=13	=13	=13	=13	=13	=13	=13	=13	=13	=13	=13	=13	=13	=13	=13	=13	=13	=13	=13
!	!	!	!LO:DY:a:t=Piano	!LO:TX:a:t=1.	!	!LO:TX:a:t=1.	!	!	!	!	!	!LO:TX:t=P:problem=brak jednego, pustego taktu	!	!	!	!	!LO:DY:a:t=pia	!	!LO:DY:a:t=pia
4f\	8.cc\ 8.aa	e-	p	2.r	.	2.r	.	2.r	.	8.cc\	e-	8.aa\	e-	2.ryy	2.ryy	8.ff\L	p	8.aa\L	p
.	16cc\ 16aa	-ti-	.	.	.	.	.	.	.	16cc\	-ti-	16aa\	-ti-	.	.	16ff\Jk	.	16aa\Jk	.
*	*	*	*	*	*	*	*	*	*	*	*	*	*	*	*	*2\right	*	*2\right	*
4e\	4.cc\ 4.gg	-am	.	.	.	.	.	.	.	4.cc\	-am	4.gg\	-am	.	.	2ee\	.	2gg\	.
4c\	.	.	.	.	.	.	.	.	.	.	.	.	.	.	.	.	.	.	.
.	8cc\ 8ee	pro	.	.	.	.	.	.	.	8cc\	pro	8ee\	pro	.	.	.	.	.	.
!	!	!	!	!	!	!	!	!	!	!	!	!	!	!	!	!LO:LB:g=original	!	!	!
=14	=14	=14	=14	=14	=14	=14	=14	=14	=14	=14	=14	=14	=14	=14	=14	=14	=14	=14	=14
*	*^	*	*	*	*	*	*	*	*	*	*	*	*	*	*	*	*	*	*
!	!	!	!	!	!	!	!	!	!LO:TX:a:t=2.	!	!	!	!	!	!	!	!	!LO:DY:a:t=pia	!	!
4G\	16ee\LL 16gg	2g\yy	no-	.	4r	.	4r	.	2.r	.	(16ee\LL	no-	16gg\LL	no-	2.ryy	2.ryy	4dd\	p	4bb\	.
.	16dd\ 16ff	.	.	.	.	.	.	.	.	.	16dd\	.	(16ff\	.	.	.	.	.	.	.
!	!	!	!	!	!	!	!	!	!	!	!LO:TX:a:t=h:dookreślenie wysokości nuty	!	!	!	!	!	!	!	!	!
.	16b\ 16dd	.	.	.	.	.	.	.	.	.	16b\	.	16dd\)	.	.	.	.	.	.	.
.	16dd\JJ 16ff	.	.	.	.	.	.	.	.	.	16dd\JJ)	.	16ff\JJ	.	.	.	.	.	.	.
8c|\L	4.cc\ 4.ee	.	-bis	.	4r	.	4r	.	.	.	4.cc\	-bis	4.ee|\	-bis	.	.	4ee\	.	8ccc\	.
8G|\	.	.	.	.	.	.	.	.	.	.	.	.	.	.	.	.	.	.	8r	.
8E|\	.	8rd	.	.	8e/L	.	(8cc\L	.	.	.	.	.	.	.	.	.	8r	.	8r	.
8C|\J	16cc/LL	8g\	pro	.	8g/J	.	8ee\J)	.	.	.	8g\	pro	16cc\LL	pro	.	.	8gg\	.	8eee\	.
.	16ee/JJ	.	.	.	.	.	.	.	.	.	.	.	16ee\JJ	.	.	.	.	.	.	.
!	!	!	!	!	!	!	!	!	!	!	!	!	!	!	!	!	!	!	!LO:LB:g=original	!
=15	=15	=15	=15	=15	=15	=15	=15	=15	=15	=15	=15	=15	=15	=15	=15	=15	=15	=15	=15	=15
!	!	!	!	!	!	!LO:DY:b:t=piano.	!	!	!	!	!	!	!	!	!	!	!	!	!	!
4F\	16ee/LL	8.a\L	no-	.	16g/LL	p	16ee\LL	.	4F\	pro	8.a\L	no-	(16ee\LL	no-	2.ryy	2.ryy	8r	.	8r	.
.	16dd/	.	.	.	16f/	.	16dd\	.	.	.	.	.	16dd\	.	.	.	.	.	.	.
.	16ff/	.	.	.	16a/	.	16ff\	.	.	.	.	.	16ff\)	.	.	.	8ff\	.	8bb\	.
.	16dd/JJ	16f\Jk	.	.	16f/JJ	.	16dd\JJ	.	.	.	16f\Jk	.	16dd\JJ	.	.	.	.	.	.	.
4G\	4e/ 4cc	2e\yy	.	.	4e/	.	4dd\	.	4G\	no-	4e/	.	4cc\	.	.	.	4ee\	.	4ccc\	.
4GG/	4d/ 4b	.	.	.	4d/	.	4b\	.	4GG/	.	4d/	.	4b\	.	.	.	4dd\	.	4bb\	.
*	*v	*v	*	*	*	*	*	*	*	*	*	*	*	*	*	*	*	*	*	*
!	!	!	!	!	!	!	!	!	!	!	!	!	!	!	!	!LO:LB:g=original	!	!	!
=16	=16	=16	=16	=16	=16	=16	=16	=16	=16	=16	=16	=16	=16	=16	=16	=16	=16	=16	=16
!	!	!	!LO:DY:b:t=forte	!	!	!	!	!	!	!	!	!	!	!	!	!	!	!	!
16C\LL	4e/ 4cc	-bis	f	8e/	.	4cc\	.	4C/	-bis	4e/	-bis	4cc\	-bis	2.ryy	2.ryy	4ee\	.	4ccc\	.
16G\	.	.	.	.	.	.	.	.	.	.	.	.	.	.	.	.	.	.	.
16F#\	.	.	.	8r	.	.	.	.	.	.	.	.	.	.	.	.	.	.	.
16G\JJ	.	.	.	.	.	.	.	.	.	.	.	.	.	.	.	.	.	.	.
16FX\LL	4r	.	.	4r	.	4r	.	4r	.	4r	.	4r	.	.	.	4r	.	4r	.
16G\	.	.	.	.	.	.	.	.	.	.	.	.	.	.	.	.	.	.	.
16E\	.	.	.	.	.	.	.	.	.	.	.	.	.	.	.	.	.	.	.
16G\JJ	.	.	.	.	.	.	.	.	.	.	.	.	.	.	.	.	.	.	.
16D/LL	4r	.	.	4r	.	4r	.	4r	.	4r	.	4r	.	.	.	4r	.	4r	.
16G/	.	.	.	.	.	.	.	.	.	.	.	.	.	.	.	.	.	.	.
16C/	.	.	.	.	.	.	.	.	.	.	.	.	.	.	.	.	.	.	.
16G/JJ	.	.	.	.	.	.	.	.	.	.	.	.	.	.	.	.	.	.	.
!LO:LB:g=original	!LO:LB:g=original	!	!	!	!	!	!	!	!	!	!	!	!	!	!	!	!	!	!
=17	=17	=17	=17	=17	=17	=17	=17	=17	=17	=17	=17	=17	=17	=17	=17	=17	=17	=17	=17
!	!	!	!LO:DY:a:t=Piano	!LO:TX:a:t=1.	!	!LO:TX:a:t=1.	!	!LO:TX:a:t=1	!	!	!	!	!	!	!	!	!LO:DY:b:t=forte	!	!
4GG/ 4G	8.b/ 8.dd	Cru-	p	2.r	.	2.r	.	2.r	.	8.b\	Cru-	8.dd\	Cru-	2.ryy	2.ryy	8.bb\L	f	8.ddd\L	.
.	16cc/ 16ee	-ci-	.	.	.	.	.	.	.	16cc\	-ci-	16ee\	-ti-	.	.	16ccc\K	.	16ccc\K	.
!	!	!	!	!	!	!	!	!	!	!	!	!	!	!	!	!	!	!	!LO:DY:b:t=for
4GG/ 4G	8dd/L 8ff	-fi-	.	.	.	.	.	.	.	8dd\	-fi-	(8ff\L	-fi-	.	.	8ddd\	.	8fff\	f
.	8cc/J 8ee	.	.	.	.	.	.	.	.	8cc\	.	8ee\J)	.	.	.	8ccc\J	.	8eee\J	.
4GG/ 4G	4b/ 4dd	-xus	.	.	.	.	.	.	.	4b\	-xus	4dd\	-xus	.	.	4bb\	.	4eee\	.
!	!	!	!	!LO:LB:g=original	!	!LO:LB:g=original	!	!	!	!	!	!	!	!	!	!	!	!	!
=18	=18	=18	=18	=18	=18	=18	=18	=18	=18	=18	=18	=18	=18	=18	=18	=18	=18	=18	=18
!	!	!	!	!LO:TX:b:i:t=forto.	!	!LO:TX:b:i:t=fort	!	!	!	!	!	!	!	!	!	!	!	!	!
!	!	!	!LO:DY:a:t=forte	!	!LO:DY:a:t=forte:color=red	!	!LO:DY:a:t=forte:color=red	!	!	!LO:TX:a:t=1	!	!LO:TX:a:t=1	!	!	!	!LO:TX:a:t=1	!	!LO:TX:a:t=1	!
16GG/LL	16g/LL	.	f	16G/LL	f	16g\LL	f	16GG/LL	Sub	2.r	.	2.r	.	2.ryy	2.ryy	2.r	.	2.r	.
16AA/	16a/	.	.	16A/	.	(16a\	.	16AA/JJ	.	.	.	.	.	.	.	.	.	.	.
16BB/	16b/	.	.	16B/	.	16b\	.	16BB/LL	pon-	.	.	.	.	.	.	.	.	.	.
16C/JJ	16cc/JJ	.	.	16c/JJ	.	16cc\JJ)	.	16C/JJ	.	.	.	.	.	.	.	.	.	.	.
16D/LL	16dd/LL	.	.	16d/LL	.	16dd\LL	.	16D/LL	-ti-	.	.	.	.	.	.	.	.	.	.
16C/	16cc/	.	.	16c/	.	(16cc\	.	16C/JJ	-o	.	.	.	.	.	.	.	.	.	.
16BB/	16b/	.	.	16B/	.	16b\	.	16BB/LL	Pi-	.	.	.	.	.	.	.	.	.	.
16AA/JJ	16a/JJ	.	.	16A/JJ	.	16a\JJ)	.	16AA/JJ	-la-	.	.	.	.	.	.	.	.	.	.
!	!	!	!	!	!	!	!	!LO:TX:t=P:problem=po takcie 18 niesłusznie skreślony jeden pusty takt, po nim odsyłacz "vi+" oznaczający powrót do dalszego toku utworu zapisanego wyżej.	!	!	!	!	!	!	!	!	!	!	!
4GG/	4g/	.	.	4G/	.	4g/	.	4GG/	-to	.	.	.	.	.	.	.	.	.	.
=19	=19	=19	=19	=19	=19	=19	=19	=19	=19	=19	=19	=19	=19	=19	=19	=19	=19	=19	=19
!	!	!	!LO:DY:a:t=Piano	!LO:TX:a:t=1.	!	!LO:TX:a:t=1.	!	!LO:TX:a:t=1 vix	!	!	!	!	!	!	!	!	!LO:DY:b:t=forte	!	!
4C/ 4c	8.cc\ 8.ee	Cru-	p	2.r	.	2.r	.	2.r	.	8.cc\	Cru-	8.ee\	Cru-	2.ryy	2.ryy	8.ccc\L	f	8.eee\L	.
!	!	!	!	!	!	!	!	!	!	!	!	!	!	!	!	!	!	!	!LO:DY:b:t=forte
.	16dd\ 16ff	-ci-	.	.	.	.	.	.	.	16dd\	-ci-	16ff\	-ti-	.	.	16ddd\K	.	16fff\K	f
4C/ 4c	8ee\L 8gg	-fi-	.	.	.	.	.	.	.	(8ee\L	-fi-	(8gg\L	-fi-	.	.	8eee\	.	8ggg\	.
.	8dd\J 8ff	.	.	.	.	.	.	.	.	8dd\J)	.	8ff\J)	.	.	.	8ddd\J	.	8fff\J	.
4C/ 4c	4cc\ 4ee	-xus	.	.	.	.	.	.	.	4cc\	-xus	4ee\	-xus	.	.	4ccc\	.	4eee\	.
!	!	!	!	!	!	!	!	!	!	!LO:LB:g=original	!	!LO:LB:g=original	!	!	!	!	!	!	!
=20	=20	=20	=20	=20	=20	=20	=20	=20	=20	=20	=20	=20	=20	=20	=20	=20	=20	=20	=20
!	!	!	!LO:DY:a:t=forte	!	!LO:DY:a	!	!LO:DY:a	!LO:TX:t=P:problem=pod nutami w wyniku pomyłki wpisany tekst crucifix, pod nim tekst właściwy.	!	!	!	!	!	!	!	!	!	!	!
!	!	!	!	!	!LO:DY:a:t=forte:color=red	!	!LO:DY:a:t=forte:color=red	!LO:TX:b:t=de	!	!LO:TX:a:t=1	!	!LO:TX:a:t=1	!	!	!	!LO:TX:a:t=1	!	!LO:TX:a:t=1	!
16C\LL	16cc\LL	.	f	16c/LL	f	(16cc\LL	f	16C\	Sub	2.r	.	2.r	.	2.ryy	2.ryy	2.r	.	2.r	.
16D\	16dd\	.	.	16d/	.	16dd\	.	16D\	pon-	.	.	.	.	.	.	.	.	.	.
16E\	16ee\	.	.	16e/	.	16ee\)	.	16E\	-ti-	.	.	.	.	.	.	.	.	.	.
16F\JJ	16ff\JJ	.	.	16f/JJ	.	16ff\JJ	.	16F\	-o	.	.	.	.	.	.	.	.	.	.
!	!	!	!	!	!	!	!	!LO:LB:g=original	!	!	!	!	!	!	!	!	!	!	!
16G\LL	16gg\LL	.	.	16g/LL	.	16gg\LL	.	16G\LL	pi-	.	.	.	.	.	.	.	.	.	.
16F\	16ff\	.	.	16f/	.	16ff\	.	16F\JJ	.	.	.	.	.	.	.	.	.	.	.
16E\	16ee\	.	.	16e/	.	16ee\	.	16E\LL	-la-	.	.	.	.	.	.	.	.	.	.
16D\JJ	16dd\JJ	.	.	16c/JJ	.	16dd\JJ	.	16D\JJ	.	.	.	.	.	.	.	.	.	.	.
4C/	8cc|/	.	.	4c/	.	4cc\	.	4C\	-to	.	.	.	.	.	.	.	.	.	.
.	8cc|/	sub	.	.	.	.	.	.	.	.	.	.	.	.	.	.	.	.	.
=21	=21	=21	=21	=21	=21	=21	=21	=21	=21	=21	=21	=21	=21	=21	=21	=21	=21	=21	=21
!	!	!	!LO:DY:a:t=Piano	!LO:TX:a:t=1.	!	!LO:TX:a:t=1.	!	!	!	!	!	!	!	!	!	!	!LO:DY:a:t=piano	!	!LO:DY:a:t=piano
4f\	8.cc\ 8.aa	Pon-	p	2.r	.	2.r	.	2.r	.	8.cc\	pon-	8aa\	e-	2.ryy	2.ryy	8.ff\L	p	8.aa\L	p
.	.	.	.	.	.	.	.	.	.	.	.	8aa\	-ti-	.	.	.	.	.	.
.	16cc\ 16aa	-ti-	.	.	.	.	.	.	.	16cc\	-ti-	.	.	.	.	16ff\Jk	.	16bb\Jk	.
4e\	4cc\ 4gg	-o	.	.	.	.	.	.	.	4cc\	-o	4gg\	-am	.	.	2ee\	.	2gg\	.
4c\	8r	.	.	.	.	.	.	.	.	8r	.	8r	.	.	.	.	.	.	.
.	8cc\ 8ee	pi-	.	.	.	.	.	.	.	8cc\	pi-	8ee\	pro	.	.	.	.	.	.
!LO:LB:g=original	!LO:LB:g=original	!	!	!	!	!	!	!	!	!	!	!	!	!	!	!	!	!	!
=22	=22	=22	=22	=22	=22	=22	=22	=22	=22	=22	=22	=22	=22	=22	=22	=22	=22	=22	=22
*	*^	*	*	*	*	*	*	*	*	*	*	*	*	*	*	*	*	*	*
!	!	!	!	!	!	!	!	!	!LO:TX:a:t=2	!	!	!	!	!	!	!	!	!	!	!
4G\	16ee\LL 16gg	2g\yy	-la-	.	4r	.	4r	.	2.r	.	16ee\LL	-la-	(16gg\LL	no-	2.ryy	2.ryy	4dd\	.	4bb\	.
.	16dd\JJ 16ff	.	.	.	.	.	.	.	.	.	16dd\JJ	.	16ff\JJ)	.	.	.	.	.	.	.
.	16b\LL 16dd	.	.	.	.	.	.	.	.	.	16cc\LL	.	(16dd\LL	.	.	.	.	.	.	.
.	16dd\JJ 16ff	.	.	.	.	.	.	.	.	.	16dd\JJ	.	16ff\JJ)	.	.	.	.	.	.	.
8c\L	4cc\ 4ee	.	-to	.	4r	.	4r	.	.	.	4cc\	-to	4ee\	-bis	.	.	4ee\	.	4bb\	.
8G\	.	.	.	.	.	.	.	.	.	.	.	.	.	.	.	.	.	.	.	.
8E\	8rbb	8rd	.	.	8e/L	.	(8cc\L	.	.	.	8r	.	8r	.	.	.	8r	.	8r	.
!	!	!	!	!LO:DY:a:t=for	!	!LO:DY:b:t=piano.	!	!	!	!	!	!	!	!	!	!	!	!	!	!
8C\J	16cc/LL	8g\	pi-	f	8g/J	p	8ee\J)	.	.	.	8g\	pi-	16cc\LL	pro	.	.	8gg\	.	8eee\	.
.	16ee/JJ	.	.	.	.	.	.	.	.	.	.	.	16ee\JJ	.	.	.	.	.	.	.
=23	=23	=23	=23	=23	=23	=23	=23	=23	=23	=23	=23	=23	=23	=23	=23	=23	=23	=23	=23	=23
4F\	16ee/LL	8.a\L	-ta-	.	16g/LL	.	16ee\LL	.	4F\	pi-	8.a\L	-la-	(16ee\LL	no-	2.ryy	2.ryy	8r	.	8r	.
.	16dd/	.	.	.	16f/	.	16dd\	.	.	.	.	.	16dd\)	.	.	.	.	.	.	.
.	16ff/	.	.	.	16a/	.	16ff\	.	.	.	.	.	(16ff\	.	.	.	8ff\	.	8ddd\	.
.	16dd/JJ	16f\Jk	.	.	16f/JJ	.	16dd\JJ	.	.	.	16f\Jk	.	16dd\JJ)	.	.	.	.	.	.	.
4G\	4e/ 4cc	2e\yy	.	.	4e/	.	4cc\	.	4G\	-la-	4e/	.	4cc\	.	.	.	4ee\	.	4ccc\	.
4GG/	4d/ 4b	.	-to	.	4d/	.	4b\	.	4GG/	.	4d/	.	4b\	.	.	.	4dd\	.	4bb\	.
*	*v	*v	*	*	*	*	*	*	*	*	*	*	*	*	*	*	*	*	*	*
!	!	!	!	!	!	!	!	!	!	!	!	!	!	!	!	!LO:LB:g=original	!	!LO:LB:g=original	!
=24	=24	=24	=24	=24	=24	=24	=24	=24	=24	=24	=24	=24	=24	=24	=24	=24	=24	=24	=24
!LO:TX:t=P:problem=mixed beam	!	!	!	!	!	!	!	!	!	!	!	!	!	!	!	!	!	!	!
8C/L	4e/ 4cc	.	.	4e/	.	4cc\	.	4C/	-to	4e/	-to	4cc\	-bis	2.ryy	2.ryy	4ee\	.	4ccc\	.
8c\J	.	.	.	.	.	.	.	.	.	.	.	.	.	.	.	.	.	.	.
!LO:TX:t=P:problem=mixed beam	!	!	!LO:DY:a:t=Piano	!	!	!	!	!	!	!	!	!	!	!	!	!	!	!	!
8C/L	8r	.	p	8r	.	8r	.	2C/	pas-	8r	.	8r	.	.	.	8r	.	8r	.
8c\J	8g/L 8ee	Pa-	.	8g/L	.	8ee\L	.	.	.	8g\L	pas-	8ee\L	pa-	.	.	8gg\L	.	8eee\L	.
!LO:TX:t=P:problem=mixed beam	!	!	!	!	!	!	!	!	!	!	!	!	!	!	!	!	!	!	!
8C/L	8a/J 8ff	-ssus	.	8a/	.	8ff\	.	.	.	8a\J	.	8ff\J	.	.	.	8aa\	.	8fff\	.
8c\J	8f/ 8dd	.	.	8e/J	.	8dd\J	.	.	.	8f\	-sus	8dd\	.	.	.	8ff\J	.	8ddd\J	.
=25	=25	=25	=25	=25	=25	=25	=25	=25	=25	=25	=25	=25	=25	=25	=25	=25	=25	=25	=25
!LO:TX:t=P:problem=mixed beam	!	!	!	!	!	!	!	!	!	!	!	!	!	!	!	!	!	!	!
8C/L	4e/ 4cc	.	.	4e/	.	4cc\	.	4C/	-sus	4e/	et	4cc\	-ssus	2.ryy	2.ryy	4ee\	.	4ccc\	.
8c\J	.	.	.	.	.	.	.	.	.	.	.	.	.	.	.	.	.	.	.
!LO:TX:t=P:problem=mixed beam	!	!	!	!	!	!	!	!	!	!	!	!	!	!	!	!	!	!	!
8C/L	8r	.	.	8r	.	8r	.	2C/	pas-	8r	.	8r	.	.	.	8r	.	8r	.
!	!	!	!	!LO:TX:b:i:t=ſmorz	!	!	!	!	!	!	!	!	!	!	!	!	!	!	!
8c\J	8g/ 8ee	et	.	8g/L	.	8ee\L	.	.	.	8g\L	se-	8ee\	pa-	.	.	8gg\L	.	8eee\L	.
!LO:TX:t=P:problem=mixed beam	!	!	!	!	!	!	!	!	!	!	!	!	!	!	!	!	!	!	!
8C/L	8a/ 8ff	se-	.	8a/	.	8ff\	.	.	.	8a\J	-pul-	8ff\	.	.	.	8aa\	.	8fff\	.
8c\J	8f/ 8dd	-pul-	.	8f/J	.	8dd\J	.	.	.	8f\	-tus	8dd\	.	.	.	8ff\J	.	8ddd\J	.
!	!	!	!	!	!	!	!	!	!	!LO:LB:g=original	!	!	!	!	!	!	!	!	!
=26	=26	=26	=26	=26	=26	=26	=26	=26	=26	=26	=26	=26	=26	=26	=26	=26	=26	=26	=26
!LO:TX:t=P:problem=mixed beam	!	!	!	!	!	!	!	!	!	!	!	!	!	!	!	!	!	!	!
8C/L	4e/ 4g 4cc	-tus	.	4e/	.	4cc\	.	4C/	-sus	4e/	est	4cc\	-ssus	2.ryy	2.ryy	4ee\	.	4ccc\	.
8c\J	.	.	.	.	.	.	.	.	.	.	.	.	.	.	.	.	.	.	.
!LO:TX:t=P:problem=mixed beam	!	!	!	!	!	!	!	!	!	!	!	!	!	!	!	!	!	!	!
8C/L	4e/ 4g 4cc	.	.	4e/	.	4cc\	.	8C/	et	8e/	et	8cc\	et	.	.	4ee\	.	4ccc\	.
8c\J	.	.	.	.	.	.	.	8C/	se-	8e/	se-	8cc\	se-	.	.	.	.	.	.
!LO:TX:t=P:problem=mixed beam	!	!	!	!	!	!	!	!	!	!	!	!	!	!	!	!	!	!	!
8C/L	4e/ 4g 4cc	.	.	4e/	.	4cc\	.	8C/	-pul-	8e/	-pul-	8cc\	-pul-	.	.	4ee\	.	4ccc\	.
8c\J	.	.	.	.	.	.	.	8C/	-tus	8e/	-tus	8cc\	-tus	.	.	.	.	.	.
=27	=27	=27	=27	=27	=27	=27	=27	=27	=27	=27	=27	=27	=27	=27	=27	=27	=27	=27	=27
*	*	*	*	*	*	*2\right	*	*	*	*	*	*	*	*	*	*	*	*	*
!	!	!	!	!	!	!	!	!	!	!	!	!	!	!	!	!LO:TX:b:i:t=Et Resurexit Ut Credo	!	!	!
2C/	2e/ 2g 2cc	est.	.	2e/	.	2cc\	.	2C/	est.	2e/	est.	2cc\	est	2.ryy	2.ryy	4r	.	2ccc\	.
!	!	!	!	!	!	!	!	!	!	!	!	!	!	!	!	!LO:TX:t=P:problem=takt niepełny	!	!	!
.	.	.	.	.	.	.	.	.	.	.	.	.	.	.	.	2cc\yy	.	.	.
!	!	!	!	!LO:TX:b:i:t=Et Reſurexit ut Credo:color=red	!	!LO:TX:b:i:t=et Resurexit Da Capo Credo.	!	!LO:TX:b:i:t=Resurexit ut Credo	!	!LO:TX:b:i:t=Et Reſurexit Ut Credo	!	!LO:TX:b:i:t=Et Resurexit ut Credo	!	!	!	!	!	!LO:TX:b:i:t=Et Reſurexit ut Credo	!
4r	4r	.	.	4r	.	4r	.	4r	.	4r	.	4r	.	.	.	.	.	4r	.
==	==	==	==	==	==	==	==	==	==	==	==	==	==	==	==	==	==	==	==
*-	*-	*-	*-	*-	*-	*-	*-	*-	*-	*-	*-	*-	*-	*-	*-	*-	*-	*-	*-
!!!RDF**kern: | = vertical stroke
!!!RDF**kern: < = below
!!!RDF**kern: > = above
!!!system-decoration: [(s1,s2,s3,s4,s5,s6,s7,s8,s9,s10,s11)]
!!!ENC: Mateusz Solarz
!!!END: 2020-09-09
!!!ENC: Urszula Świątek
!!!END: 2022–01–26
!!!YEC: Copyright 2022 Narodowy Instytut Fryderyka Chopina (https://polishscores.org)
!!!YEM: Licence CC BY 4.0 (https://creativecommons.org/licenses/by/4.0)
